src/pos-icons/bag-checked.svg

<svg height="24" viewBox="0 0 24 24" width="24" xmlns="http://www.w3.org/2000/svg"><path d="m22 19h-20v2h20zm-18-4c0 .5.2 1 .6 1.4s.9.6 1.4.6v-11c-.5 0-1 .2-1.4.6s-.6.9-.6 1.4zm9.5-9h-3c0-.4.1-.8.4-1.1s.6-.4 1.1-.4c.4 0 .8.1 1.1.4.2.3.4.7.4 1.1m-6.5 0v11h10v-11h-2c0-.8-.3-1.5-.9-2.1s-1.3-.9-2.1-.9-1.5.3-2.1.9-.9 1.3-.9 2.1zm11 11c.5 0 1-.2 1.4-.6s.6-.9.6-1.4v-7c0-.5-.2-1-.6-1.4s-.9-.6-1.4-.6z"/></svg>

<?xml version="1.0" encoding="UTF-8"?><!DOCTYPE svg PUBLIC "-//W3C//DTD SVG 1.1//EN" "http://www.w3.org/Graphics/SVG/1.1/DTD/svg11.dtd"><svg xmlns="http://www.w3.org/2000/svg" xmlns:xlink="http://www.w3.org/1999/xlink" version="1.1" id="mdi-bag-checked" width="24" height="24" viewBox="0 0 24 24"><path d="M22 19H2V21H22V19M4 15C4 15.5 4.2 16 4.6 16.4C5 16.8 5.5 17 6 17V6C5.5 6 5 6.2 4.6 6.6C4.2 7 4 7.5 4 8V15M13.5 6H10.5C10.5 5.6 10.6 5.2 10.9 4.9C11.2 4.6 11.5 4.5 12 4.5C12.4 4.5 12.8 4.6 13.1 4.9C13.3 5.2 13.5 5.6 13.5 6M7 6V17H17V6H15C15 5.2 14.7 4.5 14.1 3.9S12.8 3 12 3C11.2 3 10.5 3.3 9.9 3.9C9.3 4.5 9 5.2 9 6H7M18 17C18.5 17 19 16.8 19.4 16.4C19.8 16 20 15.5 20 15V8C20 7.5 19.8 7 19.4 6.6C19 6.2 18.5 6 18 6V17Z" /></svg>
